!!!SOCIAL_FUNCTION:	war songs
!!!PDT:	1929
!!!OTL: No_133_Song_to_Bring_the_Clouds.krn
!!!REG: Southwest
!!!LANG: Non-Tone
!!!LING_GROUP: Uto-Aztecan
**kern
*staff1
=1-
*clefF4
*k[b-e-a-d-g-c-]
*M2/4
8.d-\L
16cn\Jk
12d-\L
12B-\
12B-\J
=2
4B-\
16c-\LK
8.B-\J
=3||
*M3/4
4B-\
16B-\LK
[8.G-\J
4G-\]
=4!|:
*M2/4
8.d-\L
16B-\Jk
12d-\L
12G-\
12G-\J
=5
4G-\
16A-\LK
8.G-\J
=6||
*M3/4
4G-\
16G-\LK
[8.F\J
4F\]
=7||
*M2/4
2B-\
=8
4B-\
4G-\
=9||
*M3/4
4B-\
4B-\
16B-\LK
8.G-\J
=10||
*M2/4
4B-\
4G-\
=11||
*M3/4
4G-\
16G-\LK
[8.F\J
4F\]
=12||
*M2/4
4B-\
4B-\
=13
4B-\
4G-\
=14||
*M3/4
4B-\
4B-\
4G-\
=15
4B-\
4B-\
4G-\
=16||
*M2/4
2B-\
=17
[2B-\
=18
2B-\]
==:|!
*-
